X: 2474
T: Ballycarroll, The
R: jig
M: 6/8
K: Fmajor
=B|cAG (3FGF F|BGF (3EFG C|BGF (3EFG C|FAd cA=B|
cAG (3FAF C|BGF E2C|(3B,CB, D CcB|AFE F2F|
cAG FEF|BGF EGC|BGF EGC|FAd c (3AB=B|
cAG (3FGF F|BGF E2C|(3B,CB, D CcB|AFE F2F||
fcA (3FGF ^F|GBd GBd|fcA FEF|(3EFG C EGC|
fcA (3FGF ^F|GBd GBd|(3B,CB, D CcB|1 AFE F2F:|2 AFE F3||

